src/icons/logos/wordpress.svg

<svg width="932" height="220" viewBox="0 0 932 220" fill="none" xmlns="http://www.w3.org/2000/svg">
<path d="M529.682 85.5183H491.888V89.5219C503.715 89.5219 505.612 92.0601 505.612 107.049V134.073C505.612 149.055 503.715 151.801 491.888 151.801C482.816 150.536 476.675 145.676 468.243 136.395L458.539 125.834C471.622 123.512 478.556 115.281 478.556 105.992C478.556 94.3822 468.636 85.5183 450.059 85.5183H412.906V89.5219C424.725 89.5219 426.622 92.0601 426.622 107.049V134.073C426.622 149.055 424.725 151.801 412.906 151.801V155.804H454.943V151.801C443.125 151.801 441.227 149.055 441.227 134.073V126.475H444.814L468.243 155.812H529.682C559.868 155.812 572.92 139.798 572.92 120.581C572.92 101.364 559.868 85.5183 529.682 85.5183ZM441.227 119.949V91.8519H449.883C459.379 91.8519 463.607 98.3937 463.607 105.992C463.607 113.383 459.379 119.925 449.883 119.925L441.227 119.949ZM530.314 149.295H528.833C521.234 149.295 520.177 147.397 520.177 137.684V91.8519H530.314C552.261 91.8519 556.273 107.866 556.273 120.349C556.273 133.225 552.261 149.271 530.314 149.271V149.295Z" fill="currentColor"/>
<path d="M295.354 127.74L309.919 84.6696C314.147 72.2106 312.249 68.6554 298.709 68.6554V64.4357H338.4V68.6554C325.101 68.6554 321.93 71.8582 316.653 87.2398L292.608 159.416H289.869L268.33 93.3412L246.383 159.416H243.637L220.208 87.2238C215.139 71.8102 211.76 68.6394 199.518 68.6394V64.4197H246.383V68.6394C233.924 68.6394 230.545 71.594 234.981 84.6536L249.121 127.724L270.444 64.3876H274.448L295.354 127.74Z" fill="currentColor"/>
<path d="M367.13 158.559C343.909 158.559 324.909 141.456 324.909 120.557C324.909 99.867 343.909 82.7719 367.13 82.7719C390.351 82.7719 409.351 99.867 409.351 120.557C409.351 141.456 390.351 158.559 367.13 158.559ZM367.13 89.3137C347.705 89.3137 340.955 106.833 340.955 120.541C340.955 134.474 347.705 151.769 367.13 151.769C386.763 151.769 393.553 134.458 393.553 120.541C393.521 106.833 386.763 89.3137 367.13 89.3137Z" fill="currentColor"/>
<path d="M625.094 151.593V155.812H576.755V151.593C590.896 151.593 593.426 148.006 593.426 126.891V93.117C593.426 72.0024 590.896 68.6234 576.755 68.6234V64.4036H620.45C642.197 64.4036 654.232 75.6136 654.232 90.5788C654.232 105.152 642.221 116.546 620.45 116.546H608.439V126.891C608.415 148.006 610.954 151.593 625.094 151.593ZM620.45 72.0024H608.439V108.739H620.45C632.276 108.739 637.761 100.5 637.761 90.5788C637.761 80.4498 632.276 72.0024 620.45 72.0024Z" fill="currentColor"/>
<path d="M799.256 135.971L798.199 139.766C796.302 146.732 793.972 149.271 778.982 149.271H776.02C765.05 149.271 763.144 146.732 763.144 131.743V122.039C779.615 122.039 780.88 123.512 780.88 134.49H784.884V103.038H780.88C780.88 114.016 779.615 115.489 763.144 115.489V91.8519H774.755C789.744 91.8519 792.066 94.3821 793.972 101.348L795.029 105.352H798.408L796.934 85.5103H734.863V89.5138C746.69 89.5138 748.588 92.0521 748.588 107.041V134.065C748.588 147.773 746.986 151.224 737.65 151.681C728.794 150.328 722.709 145.491 714.429 136.347L704.717 125.786C717.808 123.464 724.734 115.233 724.734 105.944C724.734 94.3341 714.814 85.4703 696.237 85.4703H659.084V89.4738C670.903 89.4738 672.801 92.012 672.801 107.001V134.025C672.801 149.006 670.903 151.753 659.084 151.753V155.756H701.09V151.753C689.271 151.753 687.373 149.006 687.373 134.025V126.426H690.961L714.389 155.764H801.154L802.419 135.923L799.256 135.971ZM687.373 119.957V91.8519H696.029C705.526 91.8519 709.745 98.3937 709.745 105.992C709.745 113.383 705.526 119.925 696.029 119.925L687.373 119.957Z" fill="currentColor"/>
<path d="M842.109 158.559C833.662 158.559 826.271 154.123 823.109 151.353C821.363 153.412 820.196 155.899 819.73 158.559H815.726V129.429H819.946C821.635 143.361 831.348 151.593 843.807 151.593C850.557 151.593 856.05 147.789 856.05 141.456C856.05 135.971 851.189 131.743 842.534 127.74L830.523 122.039C822.076 118.035 815.742 111.061 815.742 101.773C815.742 91.6357 825.238 82.9801 838.33 82.9801C844.282 82.9035 850.086 84.839 854.801 88.4729C855.85 87.6242 856.906 85.2701 857.539 82.7719H861.543V107.682H857.059C855.585 97.7611 850.092 89.5219 838.907 89.5219C832.997 89.5219 827.504 92.9008 827.504 98.1855C827.504 103.67 831.94 106.625 842.077 111.269L853.688 116.97C863.817 121.822 867.828 129.637 867.828 135.971C867.86 149.271 856.258 158.559 842.109 158.559Z" fill="currentColor"/>
<path d="M905.942 158.559C897.495 158.559 890.104 154.123 886.942 151.353C885.196 153.412 884.03 155.899 883.563 158.559H879.559V129.429H883.779C885.468 143.361 895.181 151.593 907.64 151.593C914.39 151.593 919.883 147.789 919.883 141.456C919.883 135.971 915.022 131.743 906.367 127.74L894.356 122.039C885.909 118.035 879.575 111.061 879.575 101.773C879.575 91.6357 889.071 82.9801 902.163 82.9801C908.115 82.9035 913.919 84.839 918.634 88.4729C919.683 87.6242 920.739 85.2701 921.372 82.7719H925.376V107.682H920.94C919.466 97.7611 913.974 89.5219 902.788 89.5219C896.878 89.5219 891.386 92.9008 891.386 98.1855C891.386 103.67 895.821 106.625 905.958 111.269L917.569 116.97C927.698 121.822 931.709 129.637 931.709 135.971C931.693 149.271 920.083 158.559 905.942 158.559Z" fill="currentColor"/>
<path d="M95.0174 20.7002C112.808 20.6521 130.202 25.9525 144.942 35.9136C154.452 42.3387 162.642 50.5285 169.067 60.039C179.029 74.7827 184.352 92.1695 184.352 109.963C184.352 127.757 179.029 145.144 169.067 159.887C159.375 174.246 145.727 185.485 129.776 192.244C116.093 198.036 101.179 200.316 86.3897 198.879C71.6007 197.441 57.4052 192.331 45.0933 184.013C30.7364 174.317 19.4953 160.67 12.7287 144.722C6.9323 131.039 4.64977 116.124 6.08879 101.334C7.52781 86.5434 12.6427 72.3479 20.9679 60.039C30.6638 45.6821 44.3106 34.441 60.2587 27.6744C71.2553 23.0226 83.0774 20.6369 95.0174 20.6602V20.7002ZM95.0174 14.9591C76.2288 14.9575 57.8615 20.5271 42.238 30.9635C26.6145 41.3999 14.4363 56.2346 7.24329 73.5919C0.0502617 90.9491 -1.83462 110.049 1.82699 128.478C5.48859 146.906 14.5322 163.835 27.8145 177.124C41.0967 190.413 58.021 199.465 76.4476 203.136C94.8741 206.807 113.975 204.932 131.336 197.748C148.697 190.563 163.538 178.393 173.982 162.774C184.427 147.156 190.006 128.792 190.013 110.003C190.013 84.8079 180.005 60.6445 162.19 42.828C144.375 25.0115 120.213 15.0013 95.0174 14.9991V14.9591Z" fill="currentColor"/>
<path d="M15.8516 109.996C15.8451 124.866 20.0266 139.436 27.9171 152.04C35.8077 164.643 47.0883 174.769 60.467 181.259L22.7216 77.7835C18.1873 87.9169 15.8461 98.8943 15.8516 109.996V109.996ZM148.457 105.992C148.457 96.2078 144.942 89.4338 141.931 84.1571C137.928 77.6314 134.156 72.1465 134.156 65.5887C134.156 58.3183 139.673 51.5443 147.448 51.5443C147.8 51.5443 148.137 51.5443 148.473 51.6083C140.02 43.8674 129.986 38.055 119.065 34.5732C108.145 31.0914 96.5981 30.0232 85.2242 31.4426C73.8503 32.8619 62.9204 36.7349 53.1905 42.7937C43.4605 48.8525 35.1628 56.9526 28.8711 66.5335C30.7287 66.5896 32.4823 66.6296 33.9636 66.6296C42.2429 66.6296 55.0622 65.6207 55.0622 65.6207C59.33 65.3725 59.8665 71.6421 55.5747 72.1465C55.5747 72.1465 51.2829 72.651 46.5107 72.8992L75.3362 158.647L92.6635 106.689L80.3726 72.8832C76.1048 72.6349 72.0693 72.1305 72.0693 72.1305C67.8015 71.8823 68.3059 65.3565 72.5737 65.6047C72.5737 65.6047 85.6413 66.6136 93.3921 66.6136C101.671 66.6136 114.491 65.6047 114.491 65.6047C118.759 65.3565 119.295 71.6261 114.995 72.1305C114.995 72.1305 110.703 72.6349 105.939 72.8832L134.549 157.982L142.716 132.104C146.335 120.798 148.433 112.782 148.433 106.008L148.457 105.992ZM96.4108 116.906L72.6618 185.927C88.6091 190.626 105.631 190.183 121.313 184.662C121.093 184.316 120.903 183.951 120.744 183.573L96.4108 116.906ZM164.471 72.0024C164.827 74.7021 165.004 77.4225 164.999 80.1456C164.999 88.1527 163.502 97.2087 158.978 108.499L134.821 178.424C152.654 168.049 165.732 151.123 171.273 131.249C176.814 111.375 174.379 90.1238 164.487 72.0184L164.471 72.0024Z" fill="currentColor"/>
</svg>

<svg xmlns="http://www.w3.org/2000/svg" width="932" height="220" fill="none">
    <path fill="currentColor"
        d="M529.682 85.518h-37.794v4.004c11.827 0 13.724 2.538 13.724 17.527v27.024c0 14.982-1.897 17.728-13.724 17.728-9.072-1.265-15.213-6.125-23.645-15.406l-9.704-10.561c13.083-2.322 20.017-10.553 20.017-19.842 0-11.61-9.92-20.474-28.497-20.474h-37.153v4.004c11.819 0 13.716 2.538 13.716 17.527v27.024c0 14.982-1.897 17.728-13.716 17.728v4.003h42.037v-4.003c-11.818 0-13.716-2.746-13.716-17.728v-7.598h3.587l23.429 29.337h61.439c30.186 0 43.238-16.014 43.238-35.231 0-19.217-13.052-35.063-43.238-35.063Zm-88.455 34.431V91.852h8.656c9.496 0 13.724 6.542 13.724 14.14 0 7.391-4.228 13.933-13.724 13.933l-8.656.024Zm89.087 29.346h-1.481c-7.599 0-8.656-1.898-8.656-11.611V91.852h10.137c21.947 0 25.959 16.014 25.959 28.497 0 12.876-4.012 28.922-25.959 28.922v.024ZM295.354 127.74l14.565-43.07c4.228-12.46 2.33-16.015-11.21-16.015v-4.22H338.4v4.22c-13.299 0-16.47 3.203-21.747 18.585l-24.045 72.176h-2.739L268.33 93.341l-21.947 66.075h-2.746l-23.429-72.192c-5.069-15.414-8.448-18.585-20.69-18.585v-4.22h46.865v4.22c-12.459 0-15.838 2.955-11.402 16.015l14.14 43.07 21.323-63.336h4.004l20.906 63.352ZM367.13 158.559c-23.221 0-42.221-17.103-42.221-38.002 0-20.69 19-37.785 42.221-37.785 23.221 0 42.221 17.095 42.221 37.785 0 20.899-19 38.002-42.221 38.002Zm0-69.245c-19.425 0-26.175 17.519-26.175 31.227 0 13.933 6.75 31.228 26.175 31.228 19.633 0 26.423-17.311 26.423-31.228-.032-13.708-6.79-31.227-26.423-31.227ZM625.094 151.593v4.219h-48.339v-4.219c14.141 0 16.671-3.587 16.671-24.702V93.117c0-21.115-2.53-24.494-16.671-24.494v-4.22h43.695c21.747 0 33.782 11.21 33.782 26.176 0 14.573-12.011 25.967-33.782 25.967h-12.011v10.345c-.024 21.115 2.515 24.702 16.655 24.702Zm-4.644-79.59h-12.011v36.736h12.011c11.826 0 17.311-8.239 17.311-18.16 0-10.13-5.485-18.577-17.311-18.577ZM799.256 135.971l-1.057 3.795c-1.897 6.966-4.227 9.505-19.217 9.505h-2.962c-10.97 0-12.876-2.539-12.876-17.528v-9.704c16.471 0 17.736 1.473 17.736 12.451h4.004v-31.452h-4.004c0 10.978-1.265 12.451-17.736 12.451V91.852h11.611c14.989 0 17.311 2.53 19.217 9.496l1.057 4.004h3.379l-1.474-19.842h-62.071v4.004c11.827 0 13.725 2.538 13.725 17.527v27.024c0 13.708-1.602 17.159-10.938 17.616-8.856-1.353-14.941-6.19-23.221-15.334l-9.712-10.561c13.091-2.322 20.017-10.553 20.017-19.842 0-11.61-9.92-20.474-28.497-20.474h-37.153v4.004c11.819 0 13.717 2.538 13.717 17.527v27.024c0 14.981-1.898 17.728-13.717 17.728v4.003h42.006v-4.003c-11.819 0-13.717-2.747-13.717-17.728v-7.599h3.588l23.428 29.338h86.765l1.265-19.841-3.163.048Zm-111.883-16.014V91.852h8.656c9.497 0 13.716 6.542 13.716 14.14 0 7.391-4.219 13.933-13.716 13.933l-8.656.032ZM842.109 158.559c-8.447 0-15.838-4.436-19-7.206a15.197 15.197 0 0 0-3.379 7.206h-4.004v-29.13h4.22c1.689 13.932 11.402 22.164 23.861 22.164 6.75 0 12.243-3.804 12.243-10.137 0-5.485-4.861-9.713-13.516-13.716l-12.011-5.701c-8.447-4.004-14.781-10.978-14.781-20.266 0-10.137 9.496-18.793 22.588-18.793a26.425 26.425 0 0 1 16.471 5.493c1.049-.849 2.105-3.203 2.738-5.701h4.004v24.91h-4.484c-1.474-9.92-6.967-18.16-18.152-18.16-5.91 0-11.403 3.379-11.403 8.663 0 5.485 4.436 8.44 14.573 13.084l11.611 5.701c10.129 4.852 14.14 12.667 14.14 19.001.032 13.3-11.57 22.588-25.719 22.588ZM905.942 158.559c-8.447 0-15.838-4.436-19-7.206a15.206 15.206 0 0 0-3.379 7.206h-4.004v-29.13h4.22c1.689 13.932 11.402 22.164 23.861 22.164 6.75 0 12.243-3.804 12.243-10.137 0-5.485-4.861-9.713-13.516-13.716l-12.011-5.701c-8.447-4.004-14.781-10.978-14.781-20.266 0-10.137 9.496-18.793 22.588-18.793a26.425 26.425 0 0 1 16.471 5.493c1.049-.849 2.105-3.203 2.738-5.701h4.004v24.91h-4.436c-1.474-9.92-6.966-18.16-18.152-18.16-5.91 0-11.402 3.379-11.402 8.663 0 5.485 4.435 8.44 14.572 13.084l11.611 5.701c10.129 4.852 14.14 12.667 14.14 19.001-.016 13.3-11.626 22.588-25.767 22.588ZM95.017 20.7a88.735 88.735 0 0 1 49.925 15.214 89.749 89.749 0 0 1 24.125 24.125 89.172 89.172 0 0 1 0 99.848 89.56 89.56 0 0 1-39.291 32.357 89.176 89.176 0 0 1-84.683-8.231 89.68 89.68 0 0 1-32.364-39.291 89.11 89.11 0 0 1 8.239-84.683 89.679 89.679 0 0 1 39.29-32.365 88.773 88.773 0 0 1 34.76-7.014v.04Zm0-5.74a95.004 95.004 0 1 0 94.996 95.043 95.004 95.004 0 0 0-94.996-95.004v-.04Z" />
    <path fill="currentColor"
        d="M15.852 109.996a79.167 79.167 0 0 0 44.615 71.263L22.722 77.784a78.772 78.772 0 0 0-6.87 32.212Zm132.605-4.004c0-9.784-3.515-16.558-6.526-21.835-4.003-6.526-7.775-12.01-7.775-18.568 0-7.27 5.517-14.045 13.292-14.045.352 0 .689 0 1.025.064a79.137 79.137 0 0 0-63.249-20.165 79.14 79.14 0 0 0-56.353 35.09c1.858.057 3.611.097 5.093.097 8.279 0 21.098-1.01 21.098-1.01 4.268-.248 4.805 6.022.513 6.526 0 0-4.292.505-9.064.753l28.825 85.748 17.328-51.958-12.291-33.806c-4.268-.248-8.304-.752-8.304-.752-4.267-.249-3.763-6.775.505-6.526 0 0 13.067 1.009 20.818 1.009 8.279 0 21.099-1.01 21.099-1.01 4.268-.248 4.804 6.022.504 6.526 0 0-4.292.505-9.056.753l28.61 85.099 8.167-25.878c3.619-11.306 5.717-19.322 5.717-26.096l.024-.016Zm-52.046 10.914-23.75 69.021a79.143 79.143 0 0 0 48.652-1.265 7.318 7.318 0 0 1-.569-1.089l-24.333-66.667Zm68.06-44.904c.356 2.7.533 5.42.528 8.144 0 8.007-1.497 17.063-6.021 28.353l-24.157 69.925a79.182 79.182 0 0 0 29.666-106.406l-.016-.016Z" />
</svg>
